Numix/22/categories/preferences-desktop-accessibility.svg

<?xml version="1.0" encoding="UTF-8" standalone="no"?>
<!-- Created with Inkscape (http://www.inkscape.org/) -->

<svg
   xmlns:dc="http://purl.org/dc/elements/1.1/"
   xmlns:cc="http://creativecommons.org/ns#"
   xmlns:rdf="http://www.w3.org/1999/02/22-rdf-syntax-ns#"
   xmlns:svg="http://www.w3.org/2000/svg"
   xmlns="http://www.w3.org/2000/svg"
   xmlns:sodipodi="http://sodipodi.sourceforge.net/DTD/sodipodi-0.dtd"
   xmlns:inkscape="http://www.inkscape.org/namespaces/inkscape"
   version="1.0"
   width="22"
   height="22"
   id="svg3366"
   inkscape:version="0.91 r"
   sodipodi:docname="preferences-desktop-accessibility.svg">
  <metadata
     id="metadata30">
    <rdf:RDF>
      <cc:Work
         rdf:about="">
        <dc:format>image/svg+xml</dc:format>
        <dc:type
           rdf:resource="http://purl.org/dc/dcmitype/StillImage" />
        <dc:title />
      </cc:Work>
    </rdf:RDF>
  </metadata>
  <sodipodi:namedview
     pagecolor="#ffffff"
     bordercolor="#666666"
     borderopacity="1"
     objecttolerance="10"
     gridtolerance="10"
     guidetolerance="10"
     inkscape:pageopacity="0"
     inkscape:pageshadow="2"
     inkscape:window-width="1920"
     inkscape:window-height="1056"
     id="namedview28"
     showgrid="true"
     inkscape:zoom="11.313709"
     inkscape:cx="-7.665872"
     inkscape:cy="13.036372"
     inkscape:window-x="0"
     inkscape:window-y="24"
     inkscape:window-maximized="1"
     inkscape:current-layer="svg3366">
    <inkscape:grid
       type="xygrid"
       id="grid4158" />
  </sodipodi:namedview>
  <defs
     id="defs3368" />
  <path
     style="fill:#698ecc;fill-opacity:1;stroke:none;stroke-width:1.003654;stroke-linecap:round;stroke-linejoin:round;stroke-miterlimit:4;stroke-dasharray:none;stroke-dashoffset:0;stroke-opacity:1"
     d="M 11,1 C 5.482345,1 1,5.4823445 1,11 1,16.517655 5.482345,21.000002 11,21 16.517653,21 21.000005,16.517655 21,11 21,5.4823445 16.517653,1 11,1 Z m 0.06934,3.5 c 0.803338,0 1.455078,0.6665725 1.455078,1.488281 0,0.821705 -0.65174,1.489258 -1.455078,1.489258 -0.803338,0 -1.456055,-0.6675525 -1.456055,-1.489258 C 9.613281,5.166573 10.265998,4.5 11.069336,4.5 Z M 5.8251955,7.544922 C 5.900331,7.547672 5.977288,7.562427 6.055664,7.576172 L 11,8.4433595 15.964844,7.6123045 c 0.06722,-0.011255 0.124095,-0.029885 0.191406,-0.041015 0.192625,-0.02189 0.381437,0.083984 0.450195,0.2646485 0.06875,0.180643 5.5e-4,0.3900325 -0.158203,0.5009765 l -3.87793,1.3408205 0.002,2.844726 1.341797,4.340821 c 0.117044,0.204151 0.04564,0.463422 -0.159179,0.580078 -0.204824,0.116648 -0.465959,0.04595 -0.583008,-0.158203 L 11.007809,12.62793 8.800778,17.293946 C 8.669094,17.490796 8.388911,17.530652 8.191403,17.399415 7.9939,17.268199 7.954263,17.015182 8.085934,16.81836 L 9.453122,12.496094 9.479492,9.6093755 5.605469,8.3525395 C 5.464419,8.278648 5.364306,8.142194 5.366206,7.983399 5.368156,7.824626 5.462646,7.657312 5.605464,7.5869145 c 0.071408,-0.0352 0.1445905,-0.04476 0.2197265,-0.04199 z"
     id="path2555"
     inkscape:connector-curvature="0" />
</svg>

<!-- Created with Inkscape (http://www.inkscape.org/) -->
<svg xmlns="http://www.w3.org/2000/svg" viewBox="0 0 22 22">
 <path d="m 11 1 c -5.518 0 -10 4.482 -10 10 0 5.518 4.482 10 10 10 5.518 0 10 -4.482 10 -10 0 -5.518 -4.482 -10 -10 -10 m 0.069 3.5 c 0.803 0 1.455 0.667 1.455 1.488 0 0.822 -0.652 1.489 -1.455 1.489 -0.803 0 -1.456 -0.668 -1.456 -1.489 c 0 -0.822 0.653 -1.488 1.456 -1.488 m -5.244 3.045 c 0.075 0.003 0.152 0.018 0.23 0.031 l 4.944 0.867 4.965 -0.831 c 0.067 -0.011 0.124 -0.03 0.191 -0.041 0.193 -0.022 0.381 0.084 0.45 0.265 0.069 0.181 0.001 0.39 -0.158 0.501 l -3.878 1.341 0.002 2.845 1.342 4.341 c 0.117 0.204 0.046 0.463 -0.159 0.58 -0.205 0.117 -0.466 0.046 -0.583 -0.158 l -2.164 -4.657 -2.207 4.666 c -0.132 0.197 -0.412 0.237 -0.609 0.105 -0.198 -0.131 -0.237 -0.384 -0.105 -0.581 l 1.367 -4.322 0.026 -2.887 -3.874 -1.257 c -0.141 -0.074 -0.241 -0.21 -0.239 -0.369 0.002 -0.159 0.096 -0.326 0.239 -0.396 c 0.071 -0.035 0.145 -0.045 0.22 -0.042 z" style="fill:#698ecc;fill-opacity:1;stroke:none"/>
</svg>
